img/logo/time.svg

<svg width="40" height="40" viewBox="0 0 40 40" fill="none" xmlns="http://www.w3.org/2000/svg">
<rect x="0.5" y="0.5" width="39" height="39" rx="19.5" stroke="#EEEEEE"/>
<path d="M20 12C15.5806 12 12 15.5806 12 20C12 24.4194 15.5806 28 20 28C24.4194 28 28 24.4194 28 20C28 15.5806 24.4194 12 20 12ZM22.9835 22.0968L22.3384 22.9032C22.296 22.9562 22.2437 23.0002 22.1843 23.0329C22.125 23.0656 22.0597 23.0863 21.9923 23.0938C21.925 23.1013 21.8568 23.0954 21.7917 23.0766C21.7266 23.0577 21.6658 23.0262 21.6129 22.9839L19.4516 21.38C19.3006 21.2591 19.1787 21.1058 19.0949 20.9314C19.0112 20.757 18.9677 20.566 18.9677 20.3726V15.3548C18.9677 15.218 19.0221 15.0867 19.1189 14.9899C19.2157 14.8931 19.347 14.8387 19.4839 14.8387H20.5161C20.653 14.8387 20.7843 14.8931 20.8811 14.9899C20.9779 15.0867 21.0323 15.218 21.0323 15.3548V20L22.9032 21.371C22.9562 21.4133 23.0003 21.4657 23.033 21.5251C23.0657 21.5845 23.0863 21.6498 23.0938 21.7172C23.1013 21.7846 23.0954 21.8528 23.0764 21.918C23.0575 21.9831 23.026 22.0439 22.9835 22.0968Z" fill="black"/>
</svg>

<svg xmlns="http://www.w3.org/2000/svg" width="40" height="40" fill="none" viewBox="0 0 40 40"><rect width="39" height="39" x=".5" y=".5" stroke="#eee" rx="19.5"/><path fill="#000" d="M20 12c-4.42 0-8 3.58-8 8s3.58 8 8 8 8-3.58 8-8-3.58-8-8-8m2.983 10.097-.645.806a.516.516 0 0 1-.725.08l-2.161-1.603a1.29 1.29 0 0 1-.484-1.007v-5.018a.516.516 0 0 1 .516-.516h1.032a.516.516 0 0 1 .516.516V20l1.871 1.371a.515.515 0 0 1 .08.726"/></svg>
